X: 1340
T: Mayadağ`dan Kalkan Kazlar
C: (Anonim)
O: Turkey
F: http://compmusic.upf.edu/node/140
N: hicaz--turku--turkaksagi--mayadagdan_kalkan--
N: makam= hicaz
N: form= turku
N: usul= turkaksagi = 5/8
M: 5/8
L: 1/16
K: C _7/8B ^f ^c 
Q: 1/4=204
%%MIDI tuningsystem comma53
G2A2 A2A4 | B2 c2B4A2  | G2A2 A2A4 | A2 G2F2 E2D2  | \
w:  ARANAĞME  |   |   |   | 
G2A2 A2A4 | 
w:  ARANAĞME  | 
B2 c2B4A2  | G2A2 A2A4 | A8z2  | G2A2 A2A4 | \
w:   |   |   |  Ma ya dağ dan   | 
c2 d2e4d2  | d4 c2B2 A2 | 
w:  kal *  kan   |  kaz lar    | 
G2 A2A2 A4  | c2d2 e4 d2 | d4c2 B2A2  | \
w:  Ma ya dağ dan   |  kal *  kan   |  kaz lar    | 
d2d2 d2c2 B2 | A2 B2c2 B2c2  | 
w:  Al  to puk *  lu   |  be *  yaz   | 
B2A2 B4 A2 | d2 d2d2 c2B2  | A2B2 c2B2 c2 | \
w:  kız *  lar    |  Al  to puk *  lu   |  be *  yaz   | 
B2 A2A6  | A8-A2 | G2 A2A2 A4  | 
w:  kız  |  lar    |  Yâ ri min  yü  | 
c2d2 e4 d2 | d4c2 B2A2  | G2A2 A2A4 | c2 d2e4d2  | \
w:  re *  ği   |  sız lar    |  Yâ ri min  yü  |  re *  ği   | 
d4 c2B2 A2 | d2 d2d2 c2B2  | 
w:  sız lar    |  Eğ le ne *  mem   | 
A2B2 c2B2 c2 | B2 A2B4A2  | d2d2 d2c2 B2 | \
w:  al *  da  |  na *  mam    |  Ben  bu  yer *  ler  | 
A2 B2c2 B2c2  | B2A2 A6 | 
w:  de  *  du  |  ra  | 
A8-A2  | d2d2 d2c2 B2 | A2 B2c2 B2c2  | \
w:  mam    |  Eğ le ne *  mem   |  al *  da  | 
B2A2 B4 A2 | d2 d2d2 c2B2  | 
w:  na *  mam    |  Ben  bu  yer *  ler  | 
A2B2 c2B2 c2 | B2 A2A6  | A8-A2 | G2 A2A2 A4  | \
w:  de  *  du  |  ra  |  mam    |  Var dar_ o va  | 
B2c2 B4 A2 | G2 A2A2 A4  | 
w:  sı   |  Var dar_ o va  | 
A2G2 F2E2 D2 | G2 A2A2 A4  | B2c2 B4 A2 | \
w:  sı    |  Ka za na ma  |  dım   | 
G2 A2A2 A4  | A8 z2 | G2 A2A2 A4  | 
w:  sı la  pa ra  |  sı    |  Var dar_ o va  | 
B2c2 B4 A2 | G2 A2A2 A4  | A2G2 F2E2 D2 | \
w:  sı   |  Var dar_ o va  |  sı    | 
G2 A2A2 A4  | B2c2 B4 A2 | 
w:  Ka za na ma  |  dım   | 
G2 A2A2 A4  | A8 z2 | G2 A2A2 A4  | B2c2 B4 A2 | \
w:  sı la  pa ra  |  sı    |  ARANAĞME  |   | 
G2 A2A2 A4  | A2G2 F2E2 D2 | 
w:   |   | 
G2 A2A2 A4  | B2c2 B4 A2 | G2 A2A2 A4  | \
w:  ARANAĞME  |   |   | 
A8 z2 | G2 A2A2 A4  | c2d2 e4 d2 | 
w:   |  Ma ya dağ dan   |  kal *  kan   | 
d4c2 B2A2  | G2A2 A2A4 | c2 d2e4d2  | d4 c2B2 A2 | \
w:  kaz lar    |  Ma ya dağ dan   |  kal *  kan   |  kaz lar    | 
d2 d2d2 c2B2  | 
w:  Al  to puk *  lu   | 
A2B2 c2B2 c2 | B2 A2B4A2  | d2d2 d2c2 B2 | \
w:  be *  yaz   |  kız *  lar    |  Al  to puk *  lu   | 
A2 B2c2 B2c2  | B2A2 A6 | 
w:  be *  yaz   |  kız  | 
A8-A2  | G2A2 A2A4 | c2 d2e4d2  | d4 c2B2 A2 | \
w:  lar    |  Yâ ri min  yü  |  re *  ği   |  sız lar    | 
G2 A2A2 A4  | c2d2 e4 d2 | 
w:  Yâ ri min  yü  |  re *  ği   | 
d4c2 B2A2  | d2d2 d2c2 B2 | A2 B2c2 B2c2  | \
w:  sız lar    |  Eğ le ne *  mem   |  al *  da  | 
B2A2 B4 A2 | d2 d2d2 c2B2  | 
w:  na *  mam    |  Ben  bu  yer *  ler  | 
A2B2 c2B2 c2 | B2 A2A6  | A8-A2 | d2 d2d2 c2B2  | \
w:  de  *  du  |  ra  |  mam    |  Eğ le ne *  mem   | 
A2B2 c2B2 c2 | B2 A2B4A2  | 
w:  al *  da  |  na *  mam    | 
d2d2 d2c2 B2 | A2 B2c2 B2c2  | B2A2 A6 | A8-A2  | \
w:  Ben  bu  yer *  ler  |  de  *  du  |  ra  |  mam    | 
G2A2 A2A4 | B2 c2B4A2  | 
w:  Var dar_ o va  |  sı   | 
G2A2 A2A4 | A2 G2F2 E2D2  | G2A2 A2A4 | \
w:  Var dar_ o va  |  sı    |  Ka za na ma  | 
B2 c2B4A2  | G2A2 A2A4 | 
w:  dım   |  sı la  pa ra  | 
A8z2  | G2A2 A2A4 | B2 c2B4A2  | G2A2 A2A4 | \
w:  sı    |  Var dar_ o va  |  sı   |  Var dar_ o va  | 
A2 G2F2 E2D2  | G2A2 A2A4 | 
w:  sı    |  Ka za na ma  | 
B2 c2B4A2  | G2A2 A2A4 | A8z2  | |


